assets/images/shenghuokongjian.svg

<svg xmlns="http://www.w3.org/2000/svg" preserveAspectRatio="xMidYMid" width="854" height="84" viewBox="0 0 854 84"><defs><style>.cls-1{fill:#fff;fill-rule:evenodd}</style></defs><path d="M800.834 20.693c-.08 3.198-.32 8.636-.799 16.234l-.16 1.999h33.587c0 12.795-.32 21.592-.96 26.39-1.119 7.757-4.798 11.836-11.195 12.156-2.559 0-5.598-.08-9.277-.16l-.56-1.6c3.839.08 7.118.16 9.677.16 5.598-.24 8.876-4.078 9.836-11.436.48-4.718.72-12.635.72-23.831h-32.068c-.96 7.118-2.879 13.515-5.758 19.193-3.999 6.558-9.437 12.635-16.234 18.233l-1.28-1.119c8.477-7.278 14.315-14.155 17.354-20.553 2.719-6.397 4.318-13.435 4.798-21.192.32-7.037.48-11.835.56-14.474h-23.191v-1.68h35.906c-1.759-4.478-3.998-8.716-6.717-12.555l1.679-.56c2.559 3.519 4.798 7.917 6.878 13.115h30.388v1.68h-43.184zm-87.053 54.459c-1.28.64-3.199 1.04-5.918 1.04h-7.437c-3.999 0-5.918-1.919-5.918-5.598V12.536h-29.429v21.112c0 10.236-1.2 18.393-3.439 24.391-2.479 7.037-6.957 13.755-13.435 20.072l-1.12-1.199c6.478-6.478 10.956-13.515 13.435-21.032 1.92-6.398 2.879-13.835 2.879-22.232V10.776h32.868v59.978c0 2.479 1.28 3.759 3.999 3.759h7.837c1.759 0 3.199-.24 4.238-.64 1.28-.64 2.159-1.999 2.559-4.239.4-2.798.64-7.917.64-15.274l1.599.56c0 5.998-.159 10.636-.479 13.995-.32 3.119-1.28 5.198-2.879 6.237zm-189.896 1.28l-.639-1.759c13.515-.16 25.11-2.16 34.707-5.918-3.279-4.559-6.638-8.557-10.157-12.076l1.6-.719a92.193 92.193 0 0 1 10.156 12.075c10.956-4.638 19.273-11.676 24.951-21.032h-26.95c-7.277 3.679-15.994 6.238-26.23 7.517l-1.12-1.519c17.434-1.92 30.469-7.518 39.106-16.794l1.519.88c-2.879 3.118-6.238 5.837-10.076 8.157h25.91v1.519c-11.116 19.193-32.068 29.109-62.777 29.669zm4.639-35.107l-.88-1.599c8.477-.56 15.914-2 22.392-4.319-3.039-3.838-6.238-7.277-9.597-10.156l1.6-.72c3.518 3.199 6.797 6.558 9.676 10.156 10.076-3.998 17.594-10.316 22.712-18.793h-27.19c-6.238 3.839-13.755 6.718-22.472 8.637l-1.04-1.519c14.395-2.959 25.271-8.557 32.548-16.874l1.52.8a48.06 48.06 0 0 1-7.917 7.197h26.71v1.599c-8.717 15.355-24.711 23.912-48.062 25.591zm-76.978 36.386h-7.037l-.4-1.679 7.038.08c3.038 0 4.638-1.999 4.638-5.838V12.696h-32.868v-1.76h34.627v59.738c0 4.638-1.999 7.037-5.998 7.037zM403.404 6.138l1.68-.64c3.758 4.479 7.037 9.437 9.916 14.795l-1.519.8c-3.039-5.598-6.398-10.637-10.077-14.955zm-5.998 13.115h1.76v59.018h-1.76V19.253zm-130.557 54.38h32.548V49.802h-25.91v-1.76h53.74v1.76h-26.071v23.831h32.708v1.759h-67.015v-1.759zm62.297-32.628c-7.597-6.398-15.434-11.436-23.431-15.114l1.039-1.36c8.477 4.079 16.314 9.117 23.352 15.035l-.96 1.439zM293.079 26.53c-5.917 5.758-13.595 10.557-23.191 14.395l-.88-1.599c9.197-3.519 16.874-8.237 22.952-14.075l1.119 1.279zm38.306-9.596h-62.137v12.315h-1.759V15.175h33.028c-1.12-3.439-2.32-6.478-3.599-9.117l1.759-.32c1.2 2.719 2.399 5.918 3.519 9.437h30.948v14.154h-1.759V16.934zM184.514 49.002h18.793v29.109h-1.76v-4.958h-35.746v5.358h-1.76V49.002h18.713V32.128h-24.31v-1.759h24.31V13.815c-6.637.8-13.914 1.2-21.751 1.2l-.64-1.6c17.913-.08 32.228-2.159 43.104-6.237l.879 1.599c-5.677 2.159-12.315 3.759-19.832 4.798v16.794h24.551v1.759h-24.551v16.874zm-18.713 1.68v20.712h35.746V50.682h-35.746zM140.69 9.017l1.2-1.2c5.438 3.599 9.916 7.198 13.515 10.716l-1.2 1.28c-3.439-3.519-7.917-7.117-13.515-10.796zm11.756 31.268c-3.439-3.918-7.997-7.997-13.675-12.155l1.279-1.2c5.438 3.999 9.997 8.077 13.675 12.076l-1.279 1.279zM11.572 73.633h34.707V48.922h-25.03v-1.759h25.03V24.291H23.328c-3.199 7.597-7.357 13.915-12.316 19.033l-1.039-1.279c8.157-8.397 13.675-19.833 16.554-34.228l1.679.32c-1.12 5.278-2.479 10.157-4.238 14.475h22.311V6.538h1.68v16.074h27.909v1.679H47.959v22.872h26.23v1.759h-26.23v24.711h32.947v1.759H11.572v-1.759zm142.953-25.351c-3.839 10.317-7.997 19.993-12.635 29.03l-1.6-.64a250.53 250.53 0 0 0 12.716-28.949l1.519.559zM440.83 62.917h-27.19V28.53h27.19v34.387zm-1.679-32.628H415.4v14.555h23.751V30.289zm0 16.314H415.4v14.555h23.751V46.603z" class="cls-1"/></svg>

<svg xmlns="http://www.w3.org/2000/svg" xmlns:xlink="http://www.w3.org/1999/xlink" preserveAspectRatio="xMidYMid" width="854" height="84" viewBox="0 0 854 84">
  <defs>
    <style>
      .cls-1 {
        fill: #fff;
        fill-rule: evenodd;
      }
    </style>
  </defs>
  <path d="M800.834,20.693 C800.754,23.891 800.514,29.329 800.035,36.927 L799.875,38.926 L833.462,38.926 C833.462,51.721 833.142,60.518 832.502,65.316 C831.383,73.073 827.704,77.152 821.307,77.472 C818.748,77.472 815.709,77.392 812.030,77.312 L811.470,75.712 C815.309,75.792 818.588,75.872 821.147,75.872 C826.745,75.632 830.023,71.794 830.983,64.436 C831.463,59.718 831.703,51.801 831.703,40.605 L799.635,40.605 C798.675,47.723 796.756,54.120 793.877,59.798 C789.878,66.356 784.440,72.433 777.643,78.031 L776.363,76.912 C784.840,69.634 790.678,62.757 793.717,56.359 C796.436,49.962 798.035,42.924 798.515,35.167 C798.835,28.130 798.995,23.332 799.075,20.693 L775.884,20.693 L775.884,19.013 L811.790,19.013 C810.031,14.535 807.792,10.297 805.073,6.458 L806.752,5.898 C809.311,9.417 811.550,13.815 813.630,19.013 L844.018,19.013 L844.018,20.693 L800.834,20.693 ZM713.781,75.152 C712.501,75.792 710.582,76.192 707.863,76.192 L700.426,76.192 C696.427,76.192 694.508,74.273 694.508,70.594 L694.508,12.536 L665.079,12.536 L665.079,33.648 C665.079,43.884 663.879,52.041 661.640,58.039 C659.161,65.076 654.683,71.794 648.205,78.111 L647.085,76.912 C653.563,70.434 658.041,63.397 660.520,55.880 C662.440,49.482 663.399,42.045 663.399,33.648 L663.399,10.776 L696.267,10.776 L696.267,70.754 C696.267,73.233 697.547,74.513 700.266,74.513 L708.103,74.513 C709.862,74.513 711.302,74.273 712.341,73.873 C713.621,73.233 714.500,71.874 714.900,69.634 C715.300,66.836 715.540,61.717 715.540,54.360 L717.139,54.920 C717.139,60.918 716.980,65.556 716.660,68.915 C716.340,72.034 715.380,74.113 713.781,75.152 ZM523.885,76.432 L523.246,74.673 C536.761,74.513 548.356,72.513 557.953,68.755 C554.674,64.196 551.315,60.198 547.796,56.679 L549.396,55.960 C553.075,59.638 556.513,63.717 559.552,68.035 C570.508,63.397 578.825,56.359 584.503,47.003 L557.553,47.003 C550.276,50.682 541.559,53.241 531.323,54.520 L530.203,53.001 C547.637,51.081 560.672,45.483 569.309,36.207 L570.828,37.087 C567.949,40.205 564.590,42.924 560.752,45.244 L586.662,45.244 L586.662,46.763 C575.546,65.956 554.594,75.872 523.885,76.432 ZM528.524,41.325 L527.644,39.726 C536.121,39.166 543.558,37.726 550.036,35.407 C546.997,31.569 543.798,28.130 540.439,25.251 L542.039,24.531 C545.557,27.730 548.836,31.089 551.715,34.687 C561.791,30.689 569.309,24.371 574.427,15.894 L547.237,15.894 C540.999,19.733 533.482,22.612 524.765,24.531 L523.725,23.012 C538.120,20.053 548.996,14.455 556.273,6.138 L557.793,6.938 C555.394,9.657 552.755,12.056 549.876,14.135 L576.586,14.135 L576.586,15.734 C567.869,31.089 551.875,39.646 528.524,41.325 ZM451.546,77.711 L444.509,77.711 L444.109,76.032 L451.147,76.112 C454.185,76.112 455.785,74.113 455.785,70.274 L455.785,12.696 L422.917,12.696 L422.917,10.936 L457.544,10.936 L457.544,70.674 C457.544,75.312 455.545,77.711 451.546,77.711 ZM403.404,6.138 L405.084,5.498 C408.842,9.977 412.121,14.935 415.000,20.293 L413.481,21.093 C410.442,15.495 407.083,10.456 403.404,6.138 ZM397.406,19.253 L399.166,19.253 L399.166,78.271 L397.406,78.271 L397.406,19.253 ZM266.849,73.633 L299.397,73.633 L299.397,49.802 L273.487,49.802 L273.487,48.042 L327.227,48.042 L327.227,49.802 L301.156,49.802 L301.156,73.633 L333.864,73.633 L333.864,75.392 L266.849,75.392 L266.849,73.633 ZM329.146,41.005 C321.549,34.607 313.712,29.569 305.715,25.891 L306.754,24.531 C315.231,28.610 323.068,33.648 330.106,39.566 L329.146,41.005 ZM293.079,26.530 C287.162,32.288 279.484,37.087 269.888,40.925 L269.008,39.326 C278.205,35.807 285.882,31.089 291.960,25.251 L293.079,26.530 ZM331.385,16.934 L269.248,16.934 L269.248,29.249 L267.489,29.249 L267.489,15.175 L300.517,15.175 C299.397,11.736 298.197,8.697 296.918,6.058 L298.677,5.738 C299.877,8.457 301.076,11.656 302.196,15.175 L333.144,15.175 L333.144,29.329 L331.385,29.329 L331.385,16.934 ZM184.514,49.002 L203.307,49.002 L203.307,78.111 L201.547,78.111 L201.547,73.153 L165.801,73.153 L165.801,78.511 L164.041,78.511 L164.041,49.002 L182.754,49.002 L182.754,32.128 L158.444,32.128 L158.444,30.369 L182.754,30.369 L182.754,13.815 C176.117,14.615 168.840,15.015 161.003,15.015 L160.363,13.415 C178.276,13.335 192.591,11.256 203.467,7.178 L204.346,8.777 C198.669,10.936 192.031,12.536 184.514,13.575 L184.514,30.369 L209.065,30.369 L209.065,32.128 L184.514,32.128 L184.514,49.002 ZM165.801,50.682 L165.801,71.394 L201.547,71.394 L201.547,50.682 L165.801,50.682 ZM140.690,9.017 L141.890,7.817 C147.328,11.416 151.806,15.015 155.405,18.533 L154.205,19.813 C150.766,16.294 146.288,12.696 140.690,9.017 ZM152.446,40.285 C149.007,36.367 144.449,32.288 138.771,28.130 L140.050,26.930 C145.488,30.929 150.047,35.007 153.725,39.006 L152.446,40.285 ZM11.572,73.633 L46.279,73.633 L46.279,48.922 L21.249,48.922 L21.249,47.163 L46.279,47.163 L46.279,24.291 L23.328,24.291 C20.129,31.888 15.971,38.206 11.012,43.324 L9.973,42.045 C18.130,33.648 23.648,22.212 26.527,7.817 L28.206,8.137 C27.086,13.415 25.727,18.294 23.968,22.612 L46.279,22.612 L46.279,6.538 L47.959,6.538 L47.959,22.612 L75.868,22.612 L75.868,24.291 L47.959,24.291 L47.959,47.163 L74.189,47.163 L74.189,48.922 L47.959,48.922 L47.959,73.633 L80.906,73.633 L80.906,75.392 L11.572,75.392 L11.572,73.633 ZM154.525,48.282 C150.686,58.599 146.528,68.275 141.890,77.312 L140.290,76.672 C145.168,67.235 149.407,57.559 153.006,47.723 L154.525,48.282 ZM440.830,62.917 L413.640,62.917 L413.640,28.530 L440.830,28.530 L440.830,62.917 ZM439.151,30.289 L415.400,30.289 L415.400,44.844 L439.151,44.844 L439.151,30.289 ZM439.151,46.603 L415.400,46.603 L415.400,61.158 L439.151,61.158 L439.151,46.603 Z" class="cls-1"/>
</svg>
